X:1
T:I Skoven
T:I Skoven 
T:1. För og nu
T:O. Gröndahl
C:O. Gröndahl
%%score [ 1 2 3 4 ]
L:1/8
Q:1/4=54
M:4/4
K:Bb
V:1 treble-8 nm="T1"
V:2 treble-8 nm="T2"
V:3 bass nm="B1"
V:4 bass nm="B2"
V:1
"^Larghetto"!p! d2 | B2 d d B2!<(! B d!<)! | f2 =e!>(! f d2!>)!!p! d2 | B2!<(! d d!<)! !>!=e3 z | %4
w: Hvor|brun lig- ger He- den, som|för var så röd! Hvor|Bir- ken er bar!|
!p! (.f .d .=e .e) d2 z2 | d2 (3c B c d2 z2 | f2!<(! (3f g d!<)! e2 z e | d2 ^f2 g2- (3g =f d | %8
w: grön- klædt stod den för.|För van- dred vi her,|nu e- ne jeg er. O|ve! naar Alt, _ hvad dig|
 !>!f2 e!>(! e d2!>)! d d | d4 z2 ||!p! d2 | B2 d d B2!<(! B d!<)! | f2 =e!>(! f d2!>)!!p! d2 | %13
w: kjært er, for- svin- der og|dör.|Hvor|ö- de er Ver- den, som|för var saa skjön! Hvor|
 B2!<(! d d!<)! !>!=e3 z |!p! (.f .d .=e .f) d2 z2 |!p! d2 (3c B c d2 z2 | %16
w: rig var jeg för!|Nu jeg li- der Nöd.|För van- dred vi her,|
!<(! f2!<)! (3f g d!>(! e2!>)! z e | d2!<(! ^f2 g2-!<)! (3g =f d | !>!f2 e e!>(! d2 d!>)! d | %19
w: nu e- ne jeg er. O|ve! hvor El- * skov er|tro- lös! sit Löf- te hun|
 d4 z2 |] %20
w: bröd.|
V:2
!p! d2 | B2 A A G2!<(! G B!<)! | d2 d!>(! ^c A2!>)!!p! d2 | B2!<(! A A!<)! !>!B3 z | %4
w: Hvor|brun lig- ger He- den, som|för var så röd! Hvor|Bir- ken er bar!|
!p! (.A .d .d .^c) A2 z2 | B2 (3A G A B2 z2 | d2!<(! (3d =B B!<)! c2 z e | d2 e2 d2- (3d d d | %8
w: grön- klædt stod den för.|För van- dred vi her,|nu e- ne jeg er. O|ve! naar Alt, _ hvad dig|
 !>!d2 c!>(! B B2!>)! A A | B4 z2 ||!p! d2 | B2 A A G2!<(! G B!<)! | d2 d!>(! ^c A2!>)!!p! d2 | %13
w: kjært er, for- svin- der og|dör.|Hvor|ö- de er Ver- den, som|för var saa skjön! Hvor|
 B2!<(! A A!<)! !>!B3 z |!p! (.A .d .d .^c) A2 z2 |!p! B2 (3A G A B2 z2 | %16
w: rig var jeg för!|Nu jeg li- der Nöd.|För van- dred vi her,|
!<(! d2!<)! (3d =B B!>(! c2!>)! z e | d2!<(! e2 d2-!<)! (3d d d | !>!d2 c B!>(! B2 A!>)! A | %19
w: nu e- ne jeg er. O|ve! hvor El- * skov er|tro- lös! sit Löf- te hun|
 B4 z2 |] %20
w: bröd.|
V:3
!p! D,2 | G,2 F, F, G,2!<(! G, F,!<)! | A,2 B,!>(! A, F,2!>)!!p! D,2 | G,2!<(! F, F,!<)! !>!G,3 z | %4
w: Hvor|brun lig- ger He- den, som|för var så röd! Hvor|Bir- ken er bar!|
!p! (.F, .A, .B, .A,) F,2 z2 | G,2 (3G, G, G, G,2 z2 | G,2!<(! (3G, G, _A,!<)! G,2 z E, | %7
w: grön- klædt stod den för.|För van- dred vi her,|nu e- ne jeg er. O|
 D,2 =A,2 G,2- (3G, G, _A, | !>!_A,2 G,!>(! G, G,2!>)! G, ^F, | G,4 z2 ||!p! D,2 | %11
w: ve! naar Alt, _ hvad dig|kjært er, for- svin- der og|dör.|Hvor|
 G,2 F, F, G,2!<(! G, F,!<)! | A,2 B,!>(! A, F,2!>)!!p! D,2 | G,2!<(! F, F,!<)! !>!G,3 z | %14
w: ö- de er Ver- den, som|för var saa skjön! Hvor|rig var jeg för!|
!p! (.F, .A, .B, .A,) F,2 z2 |!p! G,2 (3G, G, G, G,2 z2 | %16
w: Nu jeg li- der Nöd.|För van- dred vi her,|
!<(! G,2!<)! (3G, G, _A,!>(! G,2!>)! z E, | D,2!<(! =A,2 G,2-!<)! (3G, G, _A, | %18
w: nu e- ne jeg er. O|ve! hvor El- * skov er|
 !>!_A,2 G, G,!>(! G,2 G,!>)! ^F, | G,4 z2 |] %20
w: tro- lös! sit Löf- te hun|bröd.|
V:4
!p! D,2 | G,2 F, D, E,2!<(! E, B,,!<)! | A,,2 A,,!>(! A,, D,2!>)!!p! D,2 | %3
w: Hvor|brun lig- ger He- den, som|för var så röd! Hvor|
 G,2!<(! F, D,!<)! !>!^C,3 z |!p! (.D, .F,, .G,, .A,,) B,,2 z2 | G,2 (3G, G, G, G,2 z2 | %6
w: Bir- ken er bar!|grön- klædt stod den för.|För van- dred vi her,|
 G,2!<(! (3G, G, _A,!<)! C,2 z E, | D,2 C,2 =B,,2- (3B,, B,, B,, | !>!C,2 C,!>(! C, D,2!>)! D, D, | %9
w: nu e- ne jeg er. O|ve! naar Alt, _ hvad dig|kjært er, for- svin- der og|
 G,,4 z2 ||!p! D,2 | G,2 F, D, E,2!<(! E, B,,!<)! | A,,2 A,,!>(! A,, D,2!>)!!p! D,2 | %13
w: dör.|Hvor|ö- de er Ver- den, som|för var saa skjön! Hvor|
 G,2!<(! F, D,!<)! !>!C,3 z |!p! (.D, .F,, .G,, .A,,) B,,2 z2 |!p! G,2 (3G, G, G, G,2 z2 | %16
w: rig var jeg för!|Nu jeg li- der Nöd.|För van- dred vi her,|
!<(! G,2!<)! (3G, G, _A,!>(! C,2!>)! z E, | D,2!<(! C,2 =B,,2-!<)! (3B,, B,, B,, | %18
w: nu e- ne jeg er. O|ve! hvor El- * skov er|
 !>!C,2 C, C,!>(! D,2 D,!>)! D, | G,,4 z2 |] %20
w: tro- lös! sit Löf- te hun|bröd.|

